X:1
P: Archduke John of Austria
C: Athole Collection, arr. T. Traub 2-24-2004
R: Strathspey
M: 4/4
K: Dm
L: 1/8
|: a|"Dm"fc Af|"C"e>cg>c e/f/g/e/ c<a|"Dm"fc Af|"C"e>c "A7"a/g/f/e/ "Dm"f<d d :|
A|"Dm"d>ef>e d<AA>F|"C"E>cG>c E<CC>A|"Dm"d>e f/g/e/f/ d<AA>F |"C"E>c "A"A/B/^c/A/ "Dm"d<DDA|
"Dm"d>ef>e d<AA>F|"C"E>cG>c "Am"E<CC>A|"Dm"D>F"A"E>G "Dm"F>A"Gm"G>b|"A"a>A a/g/f/e/ "Dm"f<d d |]
